public/avatar/hat/19.svg

<svg xmlns:xlink="http://www.w3.org/1999/xlink" height="92.9" width="100.7" xmlns="http://www.w3.org/2000/svg"><g transform="translate(38.65 49.75)"><use height="12.8" transform="translate(3 -8.8)" width="23.2" xlink:href="#a"/><use height="12.8" transform="matrix(-1 0 0 1 -3.25 -8.75)" width="23.2" xlink:href="#a"/><use height="15.1" transform="translate(-15.3 -1.2)" width="29.05" xlink:href="#b"/></g><defs><use height="12.8" width="23.2" xlink:href="#c" id="a"/><use height="15.1" width="29.05" xlink:href="#d" id="b"/><g id="c"><path d="M10.9-2.25 10.35-.1Q9.5 1.45 7.5 1.55 4.55 2 .65-.2q-3.95-2.25-6.1-2.9-2-.5-3 1-1.75 2.55-.75 6l-1.3-.1q-1.9-8.25 3.35-9.45 5.2-1.25 10.45 3.5 5.2 4.75 7.6-.1M-9.15 3.9l-.05-.55q.1-3.45 3.05-4.9Q-2.7-.65.1 1.1q5.55 3.5 10.6.5-1.4 3.65-5 4.25-3.75.55-8.5-3.1-4.6-3.5-5.6 1.35l-.75-.2" fill="#f60" fill-rule="evenodd" transform="translate(11.5 6.4)"/><path d="M-9.2 3.9q-1-3.45.75-6 1-1.5 3-1 2.15.65 6.1 2.9Q4.55 2 7.5 1.55q2-.1 2.85-1.65l.55-2.15q.65 2.15-.2 3.85-5.05 3-10.6-.5-2.8-1.75-6.25-2.65Q-9.1-.1-9.2 3.35l.05.55h-.05" fill="#f90" fill-rule="evenodd" transform="translate(11.5 6.4)"/><path d="M10.9-2.25q-2.4 4.85-7.6.1-5.25-4.75-10.45-3.5-5.25 1.2-3.35 9.45l1.3.1m19.9-2.3q.85-1.7.2-3.85m-.2 3.85q-1.4 3.65-5 4.25-3.75.55-8.5-3.1-4.6-3.5-5.6 1.35l-.75-.2" fill="none" stroke="#b85021" stroke-linecap="round" stroke-linejoin="round" transform="translate(11.5 6.4)"/></g><g id="d"><path d="m13.85 5 .05.7Q6.2 2.8 1.9-6.9l1.35.3.2.05Q7.5 1.25 13.85 5m-27.6-.65.5-1.7Q-6.6 1.55-2.5-6.8l.3-.05L-.75-7q-3.9 10.4-13 11.35" fill="#f90" fill-rule="evenodd" transform="translate(14.55 7.55)"/><path d="m5.25-5.9 1.9.95 2.3 1.55.85.75Q12.6-.4 13.5 3.3 8.8.5 5.25-5.9M13.9 5.7l.1 1.35q-4.7-.2-7.75-3.55Q3 0 1.25-4.45l-1-2.6q-.6 6.5-4.85 9.8Q-8.65 6-14.05 6l.3-1.65Q-4.65 3.4-.75-7l1-.05 1.65.15q4.3 9.7 12 12.6M-13 1.9q1.1-2.75 3.2-5 2.45-2.7 6.3-3.55Q-7.85.1-13 1.9" fill="#f60" fill-rule="evenodd" transform="translate(14.55 7.55)"/><path d="m3.45-6.55 1.2.4.6.25Q8.8.5 13.5 3.3l.1.3.25 1.4Q7.5 1.25 3.45-6.55m-16.7 9.2.25-.75Q-7.85.1-3.5-6.65l1-.15q-4.1 8.35-10.75 9.45" fill="#b85021" fill-rule="evenodd" transform="translate(14.55 7.55)"/><path d="m3.45-6.55 1.2.4.6.25 1.9.95 2.3 1.55.85.75Q12.6-.4 13.5 3.3l.1.3.25 1.4.05.7.1 1.35q-4.7-.2-7.75-3.55Q3 0 1.25-4.45l-1-2.6q-.6 6.5-4.85 9.8Q-8.65 6-14.05 6l.3-1.65.5-1.7.25-.75q1.1-2.75 3.2-5 2.45-2.7 6.3-3.55l1-.15.3-.05L-.75-7l1-.05 1.65.15 1.35.3.2.05Z" fill="none" stroke="#b85021" stroke-linecap="round" stroke-linejoin="round" transform="translate(14.55 7.55)"/></g></defs></svg>

<?xml version="1.0" encoding="UTF-8" standalone="no"?>
<svg xmlns:xlink="http://www.w3.org/1999/xlink" height="92.9px" width="100.7px" xmlns="http://www.w3.org/2000/svg">
  <g transform="matrix(1.0, 0.0, 0.0, 1.0, 38.65, 49.75)">
    <use height="12.8" transform="matrix(1.0, 0.0, 0.0, 1.0, 3.0, -8.8)" width="23.2" xlink:href="#sprite0"/>
    <use height="12.8" transform="matrix(-1.0, 0.0, 0.0, 1.0, -3.25, -8.75)" width="23.2" xlink:href="#sprite0"/>
    <use height="15.1" transform="matrix(1.0, 0.0, 0.0, 1.0, -15.3, -1.2)" width="29.05" xlink:href="#sprite1"/>
  </g>
  <defs>
    <g id="sprite0" transform="matrix(1.0, 0.0, 0.0, 1.0, 11.5, 6.4)">
      <use height="12.8" transform="matrix(1.0, 0.0, 0.0, 1.0, -11.5, -6.4)" width="23.2" xlink:href="#shape0"/>
    </g>
    <g id="shape0" transform="matrix(1.0, 0.0, 0.0, 1.0, 11.5, 6.4)">
      <path d="M10.9 -2.25 L10.35 -0.1 Q9.5 1.45 7.5 1.55 4.55 2.0 0.65 -0.2 -3.3 -2.45 -5.45 -3.1 -7.45 -3.6 -8.45 -2.1 -10.2 0.45 -9.2 3.9 L-10.5 3.8 Q-12.4 -4.45 -7.15 -5.65 -1.95 -6.9 3.3 -2.15 8.5 2.6 10.9 -2.25 M-9.15 3.9 L-9.2 3.35 Q-9.1 -0.1 -6.15 -1.55 -2.7 -0.65 0.1 1.1 5.65 4.6 10.7 1.6 9.3 5.25 5.7 5.85 1.95 6.4 -2.8 2.75 -7.4 -0.75 -8.4 4.1 L-9.15 3.9" fill="#ff6600" fill-rule="evenodd" stroke="none"/>
      <path d="M-9.2 3.9 Q-10.2 0.45 -8.45 -2.1 -7.45 -3.6 -5.45 -3.1 -3.3 -2.45 0.65 -0.2 4.55 2.0 7.5 1.55 9.5 1.45 10.35 -0.1 L10.9 -2.25 Q11.55 -0.1 10.7 1.6 5.65 4.6 0.1 1.1 -2.7 -0.65 -6.15 -1.55 -9.1 -0.1 -9.2 3.35 L-9.15 3.9 -9.2 3.9" fill="#ff9900" fill-rule="evenodd" stroke="none"/>
      <path d="M10.9 -2.25 Q8.5 2.6 3.3 -2.15 -1.95 -6.9 -7.15 -5.65 -12.4 -4.45 -10.5 3.8 L-9.2 3.9 M10.7 1.6 Q11.55 -0.1 10.9 -2.25 M10.7 1.6 Q9.3 5.25 5.7 5.85 1.95 6.4 -2.8 2.75 -7.4 -0.75 -8.4 4.1 L-9.15 3.9" fill="none" stroke="#b85021" stroke-linecap="round" stroke-linejoin="round" stroke-width="1.0"/>
    </g>
    <g id="sprite1" transform="matrix(1.0, 0.0, 0.0, 1.0, 14.55, 7.55)">
      <use height="15.1" transform="matrix(1.0, 0.0, 0.0, 1.0, -14.55, -7.55)" width="29.05" xlink:href="#shape1"/>
    </g>
    <g id="shape1" transform="matrix(1.0, 0.0, 0.0, 1.0, 14.55, 7.55)">
      <path d="M13.85 5.0 L13.9 5.7 Q6.2 2.8 1.9 -6.9 L3.25 -6.6 3.45 -6.55 Q7.5 1.25 13.85 5.0 M-13.75 4.35 L-13.25 2.65 Q-6.6 1.55 -2.5 -6.8 L-2.2 -6.85 -0.75 -7.0 Q-4.65 3.4 -13.75 4.35" fill="#ff9900" fill-rule="evenodd" stroke="none"/>
      <path d="M5.25 -5.9 L7.15 -4.95 9.45 -3.4 10.3 -2.65 Q12.6 -0.4 13.5 3.3 8.8 0.5 5.25 -5.9 M13.9 5.7 L14.0 7.05 Q9.3 6.85 6.25 3.5 3.0 0.0 1.25 -4.45 L0.25 -7.05 Q-0.35 -0.55 -4.6 2.75 -8.65 6.0 -14.05 6.0 L-13.75 4.35 Q-4.65 3.4 -0.75 -7.0 L0.25 -7.05 1.9 -6.9 Q6.2 2.8 13.9 5.7 M-13.0 1.9 Q-11.9 -0.85 -9.8 -3.1 -7.35 -5.8 -3.5 -6.65 -7.85 0.1 -13.0 1.9" fill="#ff6600" fill-rule="evenodd" stroke="none"/>
      <path d="M3.45 -6.55 L4.65 -6.15 5.25 -5.9 Q8.8 0.5 13.5 3.3 L13.6 3.6 13.85 5.0 Q7.5 1.25 3.45 -6.55 M-13.25 2.65 L-13.0 1.9 Q-7.85 0.1 -3.5 -6.65 L-2.5 -6.8 Q-6.6 1.55 -13.25 2.65" fill="#b85021" fill-rule="evenodd" stroke="none"/>
      <path d="M3.45 -6.55 L4.65 -6.15 5.25 -5.9 7.15 -4.95 9.45 -3.4 10.3 -2.65 Q12.6 -0.4 13.5 3.3 L13.6 3.6 13.85 5.0 13.9 5.7 14.0 7.05 Q9.3 6.85 6.25 3.5 3.0 0.0 1.25 -4.45 L0.25 -7.05 Q-0.35 -0.55 -4.6 2.75 -8.65 6.0 -14.05 6.0 L-13.75 4.35 -13.25 2.65 -13.0 1.9 Q-11.9 -0.85 -9.8 -3.1 -7.35 -5.8 -3.5 -6.65 L-2.5 -6.8 -2.2 -6.85 -0.75 -7.0 0.25 -7.05 1.9 -6.9 3.25 -6.6 3.45 -6.55 Z" fill="none" stroke="#b85021" stroke-linecap="round" stroke-linejoin="round" stroke-width="1.0"/>
    </g>
  </defs>
</svg>
